X: 32177
T: Peter Wyper's
R: hornpipe
M: 4/4
K: Dmajor
F>DA,>D F>Ad>A|G>FE>D C>EA>G|F>Ad>f g>fe>d|(3efe (3dcB (3ABA (3GFE|
F>DA,>D F>Ad>A|G>FE>D C>EA>G|F>Ad>f e>AB>c|d2 f2 d2:|
c>de>f g>fg>e|d>ef>g a>fd>f|g>fe>g f>ed>f|(3efe (3dcB (3ABA (3GFE|
F>DA,>F A>DF>A|G>FE>D C>EA>G|F>dA>F G>ge>c|d2 f2 d2:|

